X:1
T:Domine quando veneris
T:Domine quando veneris
T:Orllande de Lassus
C:Orllande de Lassus
%%score [ 1 2 [ 3 4 ] ]
L:1/8
Q:1/4=90
M:2/2
K:F
V:1 treble nm="Superius" snm="S"
V:2 treble nm="Altus" snm="A"
V:3 treble-8 nm="Tenor 1" snm="T 1"
V:4 treble-8 nm="Tenor 2" snm="T 2"
V:1
 z8 | z8 | z8 | z8 | z8 | z4 z2 c2- | c2 B2 B2 G2- | G2 B2 c3 c | d2 G2 =B2 c2 | A2 f3 e d2- | %10
w: |||||Do-|* mi- ne, quan-|* do ve- ne-|ris in- di- ca-|re ter- * *|
"^-natural""^-natural" dc cB/A/ B4 | A8 | f6 e2 | d2 c2 d3 c | B2 A2 z4 | z8 | z2 c4 d2 | %17
w: |ram,|in- di-|ca- re ter- *|* ram,||Do- mi-|
 d2 f4 e2 | g3 g d2 f2- | f2 c2 e3 d | c2 B4 d2- | dc c4 B2 | c8 | z8 | z4 z2 g2- | g2 e2 e2 e2 | %26
w: ne, quan- do|ve- ne- ris in-|* di- ca- *|* re ter-||ram,||u-|* bi me ab-|
 fe dc BA G2 | F2 A4 =B2 | =B2 B2 c3 B | AG F4 E2 | z2 G2 A4 | B2 A4 d2 | G2 A2 z2 A2 | B2 c4 B2- | %34
w: scon- * * * * * *|dam, u- bi|me ab- scon- *|* * * dam,|a vul-|tu i- rae|tu- ae, a|vul- tu i-|
 B2 A2 G4 | G8 | z2 G2 d4- | d2 d2 c2 c2 | =B4 c4- | c4 z2 G2 | d6 d2 | c2 c2 B4 | A4 z2 A2 | %43
w: * rae tu-|ae,|qui- a|_ pec- ca- vi|ni- mis,|_ qui-|a pec-|ca- vi ni-|mis, qui-|
 d6 c2- | c2 B4 A2 | BA AG/F/ G4 | A2 A2 B2 A2 | c4 c2 f2 | d2 f2 ed cB | AB cA B2 c2 | c4 d4 | %51
w: a pec-|* ca- vi|ni- * * * * *|mis, in vi- ta|me- a, in|vi- ta me- * * *|* * * * a, in|vi- ta|
 c2 A3 B c2- | c2 B2 c4 | z2 d2 B2 d2 | cB AG F4- | F4 G4 | z2 A2 F2 A2 | GF F4 E2 | F8 |] %59
w: me- * * *|* * a,|in vi- ta|me- * * * *|* a,|in vi- ta|me- * * *|a.|
V:2
 C6 D2 | D2 F4 E2 | G3 G D4 | B6 A2 | A2 D2 G4 | F2 A2 G2 G2- | GG D2 _E4 | C2 G3 F GA | B3 A G4 | %9
w: Do- mi-|ne, quan- do|ve- ne- ris|in- di-|ca- re ter-|ram, quan- do ve-|* ne- ris in-|di- ca- * * *||
 F4 F3 G | A4 D2 G2- | G2 F2 F2 D2- | D2 F2 G3 G | A4 B4 | G2 cB AG FE | D2 C4 B,2 | C4 F3 G | %17
w: re ter- *|* ram, Do-|* mi- ne, quan|_ do ve- ne-|ris in-|di- ca- * * * * *|re ter- *|ram, quan- *|
 A2 F2 c3 c | G2 B4 F2 | A4 G3 F | E2 D3 E FG | A4 G2 G2- | G2 E2 E2 G2 | c3 B AG FE | F4 D4 | G8 | %26
w: * do ve- ne-|ris in- di-|ca- * *|re ter- * * *|* ram u-|* bi me ab-|scon- * * * * *|* dam,|u-|
 F4 G2 B2 | AG FE D4 | G2 G4 F2 | C2 D2 D2 C2 | z2 E2 F4 | G2 F4 F2 | E2 F4 F2 | G4 F2 F2- | %34
w: bi me ab-|scon- * * * *|dam, u- bi|me ab- scon- dam,|a vul-|tu i- rae|tu- ae, a|vul- tu i-|
 F2 F2 D4 | E8- | E4 z2 D2 | A6 A2 | G2 G2 F4- | F4 E4 | z2 D2 A4- | A2 A2 G2 G2 | F6 E2 | %43
w: * rae tu-|ae,|_ qui-|a pec-|ca- vi ni-|* mis,|qui- a|_ pec- ca- vi|ni- mis,|
 z2 D2 A4- | A2 G4 F2 | D2 F3 E/D/ E2 | F4 F4 | G4 A4 | B2 A2 z2 A2 | F2 A2 G2 FG | AB c4 B2 | %51
w: pec- ca-|* vi ni-||mis, in|vi- ta|me- a, in|vi- ta me- * *||
 A2 E2 F4 | G2 G2 E2 G2 | FEDE F3 G | AB cB AG A2 | D2 F3 E/D/ E2 | F2 C2 DEFE | DCB,A, C4 | C8 |] %59
w: |a, in vi- ta|me- * * * * *||a, in _ _ _|vi- ta me- * * *||a.|
V:3
 z8 | z4 z2 c2- | c2 B2 B2 G2- | G2 B2 c3 c | d2 B4 G2 | d2 f2 _e4 | d2 g4 c2 | _e2 e2 e4 | %8
w: |Do|_ mi- ne, quan-|* do ve- ne-|ris in- di-|ca- re ter-|ram, in di-|ca- re ter-|
 d4 z2 c2- | c2 d2 d2 f2- | f2 e2 g3 g | d2 d3 e fg | a2 d2 c2 c2 | f4 B2 d2- | de f2 c2 d2 | %15
w: ram, Do-|* mi- ne, quan|_ do ve- ne-|ris in- * * *|* di- ca- re|ter- ram, quan-|* do ve- ne- ris|
 f4 d3 e | f2 e2 a4 | f2 a3 a g2 | e2 g2 f2 d2 | f4 c4 | g3 g f2 d2 | f3 e d4 | c2 g4 e2 | %23
w: in- di- *|ca- re, quan-|do ve- ne- ris|in- di- ca- re|ter- ram,|in- di- ca- re|ter- * *|ram u- bi|
 e2 e2 fe dc | Bc d2 G2 B2- | B2 c2 c2 G2 | dc BA G4 | d2 d2 ^f2 g2 | d2 e4 A2- | A2 A2 B2 G2 | %30
w: me ab- scon- * * *|* * * dam, u-|* bi me ab-|scon- * * * *|dam, u- bi me|ab- scon- dam,|_ ab- scon- dam,|
 z2 c4 d2 | G2 d2 c2 B2 | c2 c2 d2 c2 | d2 _e4 d2- |"^-natural" dc c4 B2 | c4 z2 c2 | g6 g2 | %37
w: a vul-|tu i- rae tu-|ae, a vul- tu|i- rae tu-||ae, qui-|a pec-|
 f2 f2 e4 | e2 e2 a4- | a2 a2 g4- | g2 f2 f4- | f4 d4 | z2 d2 a4- | a2 g2 f2 e2 | f2 d4 d2 | %45
w: ca- vi ni-|mis, qui- a|_ pec- va-|* vi ni-|* mis,|qui- a|_ pec- ca- vi|ni- mis, pec-|
 B2 d2 c4 | F2 f2 d2 f2- | f2 e2 fe dc | B2 d2 c2 A2 | d2 A2 z2 a2 | f2 a2 g3 f | ed c2 c4 | %52
w: ca- vi ni-|mis, in vi- ta-|_ me- a, _ _ _|_ in vi- ta|me- a, in|vi- ta me- *|* * * a,|
 d4 g2 e2 | agfe dc B2 | A4 z2 d2 | B2 d2 c4 | F3 G A2 A2 | B2 F2 G4 | F8 |] %59
w: in vi- ta|me- * * * * * *|a, in|vi- ta me-|a, in vi- ta|me- * *|a.|
V:4
 z8 | z8 | z8 | z4 F4- | F2 G2 G2 B2- | B2 A2 c3 c | G4 z4 | z4 z2 C2 | G2 G3 G E2 | F2 D2 B2 B2 | %10
w: |||Do-|* mi- ne, quan-|* do ve- ne-|ris,|quan-|do ve- ne- ris|in- di- ca- re|
 A4 G4 | z8 | z8 | z4 z2 G2- | G2 F2 F2 D2- | D2 F2 G3 G | A3 G FE D2 | d4 A2 c2- | c2 G2 B4 | %19
w: ter- ram,|||Do-|* mi- ne, quan|_ do ve- ne-|ris _ _ _ _|in- di- ca-|* re ter-|
 F4 z2 c2- | c2 G2 B4 | F4 G4 | C4 z2 c2- | c2 A2 A2 B2 | dc BA BA GF | _ED C2 C4 | z8 | %27
w: ram, in-|* di- ca-|re ter-|ram, u-|* bi me ab-|scon- * * * * * * *|* * * dam,||
 z4 z2 G2- | G2 E2 E2 F2 | FEDC B,2 C2 | z2 C2 F2 D2 | d2 D2 F2 B,2 | z2 F2 B2 A2 | G2 _E2 F4- | %34
w: u-|* bi me ab-|scon- * * * * dam,|a vul- tu|i- rae tu- ae,|a vul- tu|i- rae tu-|
 F4 G4 | z2 C2 c4- | c2 c2 B2 B2 | A4 A4 | z4 z2 F2 | c6 c2 | B2 B2 F4- | F4 G2 G2 | d6 c2 | %43
w: * ae,|qui- a|_ pec- ca- vi|ni- mis,|qui-|a pec-|ca- vi ni-|* mis, qui-|a pec-|
 B4 A3 G | F2 G2 D4 | z8 | z2 d2 B2 d2 | c4 F4 | z8 | z8 | z8 | A4 F2 A2 | G4 C4 | z8 | z8 | z8 | %56
w: ca- * *|vi ni- mis,||in vi- ta|me- a,||||in vi- ta|me- a,||||
 z4 D4 | B,2 D2 C4 | F8 |] %59
w: in|vi- ta me-|a.|

